X: 32153
T: Peter Piper Picked A Peck Of Pickled Peppers
R: reel
M: 4/4
K: Bdorian
fB B/B/B BcdB|ABcd e/f/e ag|fB B/B/B B/c/d cB|AB c/B/A Bcde|
fB B/B/B B2 d/c/B|A2 cd eAag|fBB^A B2 d/c/B|A2 cA B2 ce||
fBbB aBgB|eccd eaga|fBbB aBgB|eaga ecde|
fBbB aBfB|AecA eAce|fB B/B/B FB B/B/B|ABcA B2 c/d/e||

